resources/svg/emphasis-cn.svg

<svg fill="currentColor" viewBox="0 0 24 24" xmlns="http://www.w3.org/2000/svg"><path d="M12 19C12.8284 19 13.5 19.6716 13.5 20.5C13.5 21.3284 12.8284 22 12 22C11.1716 22 10.5 21.3284 10.5 20.5C10.5 19.6716 11.1716 19 12 19ZM6.5 19C7.32843 19 8 19.6716 8 20.5C8 21.3284 7.32843 22 6.5 22C5.67157 22 5 21.3284 5 20.5C5 19.6716 5.67157 19 6.5 19ZM17.5 19C18.3284 19 19 19.6716 19 20.5C19 21.3284 18.3284 22 17.5 22C16.6716 22 16 21.3284 16 20.5C16 19.6716 16.6716 19 17.5 19ZM13 2V4H19V6L17.0322 6.0006C16.2423 8.3666 14.9984 10.5065 13.4107 12.302C14.9544 13.6737 16.7616 14.7204 18.7379 15.3443L18.2017 17.2736C15.8917 16.5557 13.787 15.3326 12.0005 13.7257C10.214 15.332 8.10914 16.5553 5.79891 17.2734L5.26257 15.3442C7.2385 14.7203 9.04543 13.6737 10.5904 12.3021C9.46307 11.0285 8.50916 9.58052 7.76789 8.00128L10.0074 8.00137C10.5706 9.03952 11.2401 10.0037 11.9998 10.8772C13.2283 9.46508 14.2205 7.81616 14.9095 6.00101L5 6V4H11V2H13Z"/></svg>

<svg xmlns="http://www.w3.org/2000/svg" viewBox="0 0 24 24" fill="currentColor">
    <g>
        <path fill="none" d="M0 0h24v24H0z"/>
        <path d="M12 19a1.5 1.5 0 1 1 0 3 1.5 1.5 0 0 1 0-3zm-5.5 0a1.5 1.5 0 1 1 0 3 1.5 1.5 0 0 1 0-3zm11 0a1.5 1.5 0 1 1 0 3 1.5 1.5 0 0 1 0-3zM13 2v2h6v2h-1.968a18.222 18.222 0 0 1-3.621 6.302 14.685 14.685 0 0 0 5.327 3.042l-.536 1.93A16.685 16.685 0 0 1 12 13.726a16.696 16.696 0 0 1-6.202 3.547l-.536-1.929a14.7 14.7 0 0 0 5.327-3.042 18.077 18.077 0 0 1-2.822-4.3h2.24A16.031 16.031 0 0 0 12 10.876a16.168 16.168 0 0 0 2.91-4.876L5 6V4h6V2h2z"/>
    </g>
</svg>
